X: 082
T: Miss Hurry's Strathspey
C: Abraham Mackintosh
R: strathspey
M: C|
L: 1/8
Z: 2010 John Chambers <jc:trillian.mit.edu>
B: Abraham Mackintosh "A Collection of Strathspeys, Reels, Jigs &c.", Newcastle, after 1797, p.8
F: http://imslp.info/files/imglnks/usimg/a/a8/IMSLP80796-PMLP164326-Abraham_Mackintosh_coll.pdf
K: Am
V: 1
e | c<Ae>A c>ee>^f | g>deg d>gB>g | a>eg>d e>cde | f>de^g aAA :|
B | c2g>c a>cg>c | f>de>c B/c/d GB | Tc2g>c a>cg>c | f>de^g aA-A ||
B | Tc2g>c a>cg>c | f>de>c B>cd>e | c>Ad>B e>cf>d | e>a ^g/a/b/g/ aAA |]
V: 2 clef=bass middle=d
z | a2a2 a2c'2 | b2c'2 b2g2 | c'2b2 c'2g2 | dfe2 a2A :|
z | [e2c2][e2c2] [f2c2][e2c2] | B2c2 g2f2 | e2[e2c2] [f2c2][e2c2] | d2e2 a2A2 |
    [e2c2][e2c2] [f2c2][e2c2] | B2c2 g2z2 | A2B2 c2df | e2E2 a2A |]

%%sep 2 1 500

